!!!COM: Scriabin, Alexander
!!!OTL@@FR: Prelude
!!!OTL@@EN:
!!!OPR@@FR: 3 Morceaux for piano
!!!OPS: 2
!!!ONM: 2
!!!ODT: 1886
!!!AGN: Prelude
**kern	**kern	**dynam
*staff2	*staff1	*staff1/2
*Ipiano	*Ipiano	*
*clefF4	*clefG2	*
*k[f#c#g#d#a#]	*k[f#c#g#d#a#]	*
*B:	*B:	*
*M3/4	*M3/4	*
=1	=1	=1
4r	2.r	.
4.e	.	.
8d#	.	.
=2	=2	=2
*^	*^	*
[2.d#	4rEE	12raa	4rc	.
.	.	12dd#L	.	.
.	.	12g#J	.	.
.	2E#X	12a#L	4rc	.
.	.	12cc#	.	.
.	.	12bJ	.	.
.	.	12BL	[4B	.
.	.	12a#	.	.
.	.	12g#J	.	.
=3	=3	=3	=3	=3
4d#]	4F#	4f#	4B]	.
4FF#	4rEE	4raa	4rc	.
4D# 4B	4rEE	4f# 4b 4ff#	4rc	.
*v	*v	*	*	*
=4	=4	=4	=4
4FF#	4raa	12rc	.
.	.	12gg#L	.
.	.	12ff#J	.
4E 4B	4raa	12g#L	.
.	.	12ee	.
.	.	[12eJ	.
[4F# 4A#	6dd#	4e]	.
.	12cc#	.	.
=5	=5	=5	=5
4BB 4F#] 4B	4b	4d#	.
*clefG2	*	*	*
4.b	4raa	4rc	.
.	4raa	4rc	.
8a#	.	.	.
=6	=6	=6	=6
*^	*	*	*
[2.a#	4rc	12raa	4rc	.
.	.	12aa#L	.	.
.	.	12dd#J	.	.
.	2B#X	12ee#XL	4rc	.
.	.	12gg#	.	.
.	.	12ff#J	.	.
.	.	12f#L	[4f#	.
.	.	12ee#	.	.
.	.	12dd#J	.	.
=7	=7	=7	=7	=7
4a#]	4c#	4cc#	4f#]	.
*clefF4	*	*	*	*
4C#	4rEE	4raa	4rc	.
4A# 4f#	4rEE	4cc# 4ff# 4ccc#	4rc	.
*v	*v	*	*	*
=8	=8	=8	=8
4C#	4raa	12rc	.
.	.	12ddd#L	.
.	.	12ccc#J	.
4G# 4f#	4raa	12dd#L	.
.	.	12bb	.
.	.	[12bJ	.
4c# 4e#X	6aa#	4b]	.
.	[12gg#	.	.
=9	=9	=9	=9
4F# 4c# 4f#	4gg#]	4a#	.
2F# 2c#	4.a# 4.ff#	4rc	.
.	.	4rc	.
.	8g# 8ee	.	.
=10	=10	=10	=10
4BB	4raa	12rc	.
.	.	12dd#L	.
.	.	[12f#J	.
4An 4d# 4an	12cc#L	4f#]	.
.	12dd#	.	.
.	12bJ	.	.
8F# 8B 8f#	12cc#L	4an	.
.	12dd#	.	.
8FF#	.	.	.
.	12gg#J	.	.
*	*v	*v	*
=11	=11	=11
*^	*	*
12rc	4BBB	4ff#	.
12d#L	.	.	.
12F#J	.	.	.
12c#L	2An	12eeL	.
12d#	.	12dd#	.
12BJ	.	12cc#J	.
12c#L	.	4b	.
12d#	.	.	.
12g#J	.	.	.
=12	=12	=12	=12
*	*	*^	*
*	*	*	*^	*
4f#	[2G#	2.ryy	12rc	4r	.
.	.	.	12bL	.	.
.	.	.	12a#J	.	.
[4e	.	.	12bL	[4b\	.
.	.	.	12dd#	.	.
.	.	.	12eeJ	.	.
4e]	[4BB 4G#_	.	12ff#L	4b\_	.
.	.	.	12gg#	.	.
.	.	.	[12bbJ	.	.
=13	=13	=13	=13	=13	=13
4e	4EE 4BB] 4G#]	4eee	4bb]	4b\]	.
4.e	4rEE	4raa	4rc	4r	.
.	4rEE	4raa	4rc	4r	.
8d#	.	.	.	.	.
*	*	*	*v	*v	*
=14	=14	=14	=14	=14
[2.d#	4rEE	12raa	4rc	.
.	.	12dd#L	.	.
.	.	12g#J	.	.
.	2E#X	12a#L	4rc	.
.	.	12cc#	.	.
.	.	12bJ	.	.
.	.	12BL	[4B	.
.	.	12a#	.	.
.	.	12g#J	.	.
=15	=15	=15	=15	=15
4d#]	4F#	4f#	4B]	.
4FF#	4rEE	4raa	4rc	.
4D# 4B	4rEE	4f# 4b 4ff#	4rc	.
*v	*v	*	*	*
*	*v	*v	*
=16	=16	=16
4FF#	12r	.
.	12gg#L	.
.	12ff#J	.
4C# 4B	12g#L	.
.	12ee	.
.	12eJ	.
*clefG2	*	*
8.d#L 8.b	8.ddd#L	.
16f#Jk 16a#	16eeJk 16ccc#	.
=17	=17	=17
4B 4f# 4b	4dd# 4bb	.
4r	4r	.
4r	4r	.
==	==	==
*-	*-	*-
!!!system-decoration: {(*)}
!!!ENC: Bryan Jacob Bell
!!!END: November 2021 to April 2022
!!!PED: P. Jurgenson
